seeds/icons/iron.svg

<?xml version="1.0" encoding="utf-8"?><!-- Uploaded to: SVG Repo, www.svgrepo.com, Generator: SVG Repo Mixer Tools -->
<svg fill="#000000" width="1.5rem" height="1.5rem" viewBox="0 0 50 50" xmlns="http://www.w3.org/2000/svg" xmlns:xlink="http://www.w3.org/1999/xlink"><path d="M16 13C14.975 13 14.259766 13.749313 14.259766 14.820312C14.259766 16.091313 15.247344 17.661266 16.777344 18.822266C18.086344 19.815266 20.403 21 24 21C29.04 21 31.186906 20.175219 32.753906 19.574219C33.622906 19.241219 34.251297 19 35.154297 19C37.592297 19 41.968891 20.531 42.837891 26L47.625 26L49 26L49.814453 26C48.845453 17.597 43.684 13 35 13L16 13 z M 28.832031 24.019531C27.554031 24.019531 26.484719 24.848 26.136719 26L36.853516 25.988281C36.495516 24.852281 35.433016 24.019531 34.166016 24.019531L28.832031 24.019531 z M 27.03125 28C26.458995 28 25.892242 28.022947 25.330078 28.064453C25.241944 28.071125 25.154471 28.086015 25.066406 28.09375C24.573322 28.136036 24.083315 28.190958 23.597656 28.265625C23.550718 28.272999 23.50395 28.283326 23.457031 28.291016C16.216882 29.452851 9.7811519 34.227911 3.6484375 43L3.65625 43C2.5080267 44.633454 1.363619 46.409843 0.22265625 48.353516 A 1.0001 1.0001 0 0 0 -0.009765625 48.933594 A 1.0001 1.0001 0 0 0 1.2148438 50L48 50C49.093063 50 50 49.093063 50 48L50 38.779297L50 29.167969 A 1.0001 1.0001 0 0 0 49 28L27.03125 28 z M 24 35C25.104 35 26 35.896 26 37C26 38.104 25.104 39 24 39C22.896 39 22 38.104 22 37C22 35.896 22.896 35 24 35 z M 31 35C32.104 35 33 35.896 33 37C33 38.104 32.104 39 31 39C29.896 39 29 38.104 29 37C29 35.896 29.896 35 31 35 z M 38 35C39.104 35 40 35.896 40 37C40 38.104 39.104 39 38 39C36.896 39 36 38.104 36 37C36 35.896 36.896 35 38 35 z M 48 43.974609L48 48L2.7773438 48C3.6508669 46.571557 4.5216115 45.233168 5.3886719 44L47.875 44C47.919481 44 47.957069 43.980216 48 43.974609 z"/></svg>

<svg xmlns="http://www.w3.org/2000/svg" width="1.5rem" height="1.5rem" viewBox="0 0 50 50"><path d="M16 13c-1.025 0-1.74.75-1.74 1.82 0 1.271.987 2.841 2.517 4.002C18.087 19.815 20.403 21 24 21c5.04 0 7.187-.825 8.754-1.426.869-.333 1.497-.574 2.4-.574 2.438 0 6.815 1.531 7.684 7h6.976c-.969-8.403-6.13-13-14.814-13zm12.832 11.02A2.8 2.8 0 0 0 26.137 26l10.717-.012a2.82 2.82 0 0 0-2.688-1.968zm-1.8 3.98q-.86.001-1.702.064c-.088.007-.176.022-.264.03q-.74.061-1.468.172-.07.012-.141.025C16.217 29.453 9.781 34.228 3.648 43h.008a78 78 0 0 0-3.433 5.354 1 1 0 0 0-.233.58A1 1 0 0 0 1.215 50H48c1.093 0 2-.907 2-2V29.168A1 1 0 0 0 49 28zM24 35a2 2 0 1 1-.001 4.001A2 2 0 0 1 24 35m7 0a2 2 0 1 1-.001 4.001A2 2 0 0 1 31 35m7 0a2 2 0 1 1-.001 4.001A2 2 0 0 1 38 35m10 8.975V48H2.777a75 75 0 0 1 2.612-4h42.486c.044 0 .082-.02.125-.025"/></svg>
